X: 33646
T: Rambler, The
R: jig
M: 6/8
K: Gmajor
DB,A, G,2G|EDB, D2B|dBA GAB|AGE EDE|
DB,A, G,2G|EDB, D2B|dBA GAB|AGG G2E|
DB,A, G,2G|EDB, D2B|dBA GAB|cBc AGE|
DB,A, G,2G|EDB, D2B|dBA GAB|AGG G2B||
|:dBA GBd|gee ege|dBd edB|BAG ABc|
dBA GBd|gee ege|dBA GAB|1 AGG GBc:|2 AGG G2E||

